src/assets/duotone/AlignRight.svg

<svg width="24" height="24" viewBox="0 0 24 24"  xmlns="http://www.w3.org/2000/svg">
<path d="M4.62012 15.98V17.02C4.62012 18.61 5.22012 19.25 6.74012 19.25H18.6201V13.75H6.74012C5.22012 13.75 4.62012 14.39 4.62012 15.98Z" />
<path opacity="0.4" d="M9.62012 7.48V8.52C9.62012 10.11 10.2301 10.75 11.7401 10.75H18.6201V5.25H11.7401C10.2301 5.25 9.62012 5.89 9.62012 7.48Z" />
<path d="M18.6201 22C18.2101 22 17.8701 21.66 17.8701 21.25V2.75C17.8701 2.34 18.2101 2 18.6201 2C19.0301 2 19.3701 2.34 19.3701 2.75V21.25C19.3801 21.66 19.0401 22 18.6201 22Z" />
</svg>

<?xml version="1.0" encoding="UTF-8"?>
<svg width="24" height="24" viewBox="0 0 24 24" xmlns="http://www.w3.org/2000/svg">
 <path d="m4.6201 15.98v1.04c0 1.59 0.6 2.23 2.12 2.23h11.88v-5.5h-11.88c-1.52 0-2.12 0.64-2.12 2.23z"/>
 <path d="m9.6201 7.48v1.04c0 1.59 0.60998 2.23 2.12 2.23h6.88v-5.5h-6.88c-1.51 0-2.12 0.64-2.12 2.23z" opacity=".4"/>
 <path d="m18.62 22c-0.41 0-0.75-0.34-0.75-0.75v-18.5c0-0.41 0.34-0.75 0.75-0.75s0.75 0.34 0.75 0.75v18.5c0.01 0.41-0.33 0.75-0.75 0.75z"/>
</svg>
